src/assets/images/workers-ai/stabilityai.svg

<svg width="128" height="128" viewBox="0 0 128 128" fill="none" xmlns="http://www.w3.org/2000/svg">
<g clip-path="url(#clip0_2138_534)">
<g clip-path="url(#clip1_2138_534)">
<path d="M35.9263 116.726C60.4718 116.726 76.4363 103.685 76.4363 84.0671C76.4363 68.8531 66.7264 59.1857 49.3649 55.182L38.2182 51.8281C28.4399 49.6261 22.7324 46.9819 24.0771 40.2268C25.1958 34.6073 28.5427 31.4348 36.3254 31.4348C61.0667 31.4348 70.2335 40.2268 70.2335 40.2268V19.0806C70.2335 19.0806 61.3088 11 36.3254 11C12.7777 11 0 23.1546 0 41.9718C0 57.1858 8.85495 66.0335 26.8151 70.2374C28.072 70.5527 28.7145 70.7146 28.7424 70.7233C31.4743 71.5714 35.1606 72.692 39.8015 74.085C48.9811 76.2871 51.3417 78.6242 51.3417 85.6306C51.3417 92.0365 44.7068 95.6778 35.9263 95.6778C10.6323 95.6778 0 82.8417 0 82.8417V106.27C0 106.27 6.64888 116.726 35.9263 116.726Z" fill="url(#paint0_linear_2138_534)"/>
<path d="M111.84 115.142C120.529 115.142 127 108.837 127 100.306C127 91.5893 120.714 85.4694 111.84 85.4694C103.151 85.4694 96.8657 91.5893 96.8657 100.306C96.8657 109.022 103.151 115.142 111.84 115.142Z" fill="#E80000"/>
</g>
</g>
<defs>
<linearGradient id="paint0_linear_2138_534" x1="3821.82" y1="11" x2="3821.82" y2="10583.6" gradientUnits="userSpaceOnUse">
<stop stop-color="#9D39FF"/>
<stop offset="1" stop-color="#A380FF"/>
</linearGradient>
<clipPath id="clip0_2138_534">
<rect width="128" height="128" fill="white"/>
</clipPath>
<clipPath id="clip1_2138_534">
<rect width="127" height="106" fill="white" transform="translate(0 11)"/>
</clipPath>
</defs>
</svg>

<svg xmlns="http://www.w3.org/2000/svg" width="128" height="128" fill="none" viewBox="0 0 128 128"><g clip-path="url(#clip0_2138_534)"><g clip-path="url(#clip1_2138_534)"><path fill="url(#paint0_linear_2138_534)" d="M35.926 116.726c24.546 0 40.51-13.041 40.51-32.659 0-15.214-9.71-24.881-27.071-28.885l-11.147-3.354c-9.778-2.202-15.486-4.846-14.14-11.601 1.118-5.62 4.465-8.792 12.247-8.792 24.742 0 33.909 8.792 33.909 8.792V19.08S61.309 11 36.325 11C12.778 11 0 23.155 0 41.972c0 15.214 8.855 24.062 26.815 28.265q1.886.474 1.927.486 4.098 1.272 11.06 3.362c9.18 2.202 11.54 4.54 11.54 11.546 0 6.406-6.635 10.047-15.416 10.047C10.632 95.678 0 82.842 0 82.842v23.428s6.649 10.456 35.926 10.456"/><path fill="#E80000" d="M111.84 115.142c8.689 0 15.16-6.305 15.16-14.836 0-8.717-6.286-14.837-15.16-14.837-8.689 0-14.974 6.12-14.974 14.837s6.285 14.836 14.974 14.836"/></g></g><defs><clipPath id="clip0_2138_534"><path fill="#fff" d="M0 0h128v128H0z"/></clipPath><clipPath id="clip1_2138_534"><path fill="#fff" d="M0 11h127v106H0z"/></clipPath><linearGradient id="paint0_linear_2138_534" x1="3821.82" x2="3821.82" y1="11" y2="10583.6" gradientUnits="userSpaceOnUse"><stop stop-color="#9D39FF"/><stop offset="1" stop-color="#A380FF"/></linearGradient></defs></svg>
